X: 2704
T: Banks Of Lough Gowna, The
R: jig
M: 6/8
K: Bminor
|:B2 B BAF|FEF DFA|B2 B B^AB|d2 e fed|
B2 B BAF|FEF DFA||def gfe|1 fdB B2 z:|2 fdB B2 A||
|:def a3|afb afe|d2A def|gfe fdB|
def a3|afb afe|def gfe|1 fdB B2A:|2 fdB dBA||

